!!!COM: Schubert, Franz
!!!CDT: 1797/01/31-1828/11/19
!!!SCT: D. 365
!!!OPR: 36 Originaltänze
!!!OPS: 9
!!!ONM: 1
**kern	**kern	**dynam
*part1	*part1	*part1
*staff2	*staff1	*
*I"Klavier	*	*
*I'Klav.	*	*
*clefF4	*clefG2	*
*k[b-e-a-d-]	*k[b-e-a-d-]	*
*M3/4	*M3/4	*
*A-:	*A-:	*
=	=	=
4r	(8ee-L	p
.	8eenJ)	.
=1	=1	=1
*^	*	*
4r	2.E-	4ff'	.
4d- 4e-	.	4g 4b-	.
4d- 4e-	.	4g 4b-	.
=2	=2	=2	=2
4r	2.E-	4.g 4.b-	>
4d- 4e-	.	.	.
.	.	(8cc	.
4d- 4e-	.	8dd-L	]
.	.	8ddnJ)	.
=3	=3	=3	=3
4r	2.E-	4ff'	.
4c 4e-	.	4a- 4ee-	.
4c 4e-	.	4a- 4ee-	.
=4	=4	=4	=4
4r	2.E-	2a- 2ee-	.
4c 4e-	.	.	.
4c 4e-	.	4a- 4aa-	.
=5	=5	=5	=5
4r	2.E-	4a- 4aa-	.
4B- 4d- 4e-	.	4g 4gg	.
4B- 4d- 4e-	.	4g 4gg	.
=6	=6	=6	=6
4r	2.E-	4.ee- 4.eee-	.
4G 4d- 4e-	.	.	.
.	.	8ddd-	.
4G 4d- 4e-	.	8cccL	.
.	.	8bb-J	.
!!linebreak:original
=7	=7	=7	=7
4r	2E-	8bbnL	.
.	.	8cccJ	.
4A- 4c 4e-	.	8aa-L	.
.	.	8ee-J	.
4B- 4d- 4e-	4E-	8ggL	.
.	.	8bb-XJ	.
=8	=8	=8	=8
2c	2A-	2aa-	.
*v	*v	*	*
=:|!|:	=:|!|:	=:|!|:
.	(8qqddd-/	fz
4r	8cccL)	.
.	8bbnJ	.
=9	=9	=9
4C 4c	4ccc	.
*clefG2	*	*
4c 4g 4b-	4een	.
4c 4g 4b-	4ee	.
=10	=10	=10
4F 4f	4.ff	.
4f 4a-	.	.
.	8gg	.
4r	8aa-L	.
.	8aanJ	.
*clefF4	*	*
=11	=11	=11
.	8qqccc/	fz
4BB- 4B-	4bb-	.
4B- 4f 4a-	4ddn	.
4B- 4f 4a-	4dd	.
=12	=12	=12
4E- 4e-	2ee-	.
4e- 4g	.	.
4r	(4een	.
!!linebreak:original
=13	=13	=13
*^	*	*
4r	2.E-	4ff')	.
4d- 4e-	.	4g 4b-	.
4d- 4e-	.	4g 4b-	.
=14	=14	=14	=14
4r	2.E-	4.a- 4.ee-	.
4c 4e-	.	.	.
.	.	8aa-	.
4c 4e-	.	8bb-L	.
.	.	8cccJ	.
*v	*v	*	*
=15	=15	=15
4EE- 4E-	4ddd-	.
4E- 4B- 4d-	4b- 4dd- 4ee- 4gg	.
4E- 4B- 4d-	4b- 4dd- 4ee- 4gg	.
=16	=16	=16
2A- 2c	2a- 2cc 2ee- 2aa-	.
==	==	==
*-	*-	*-
!!!system-decoration: {(s1,s2)}
!!!AGN: Walzer
!!!EED: Wolfgang Drescher
!!!END: 2025/11/23
!!!ENC: Florian Moldaschl
!!!EEV: 2025/11/23
!!!title: @{OPR}, @{SCT} №@{ONM}
